X:4
T:La porcheronne
R:Chanson
O:France
B:Le livre des Chansons (Henri Davenson) n°4
Z:<anamnese@caramail.com> -- http://anamnese.fr.st
M:2/4
L:1/8
Q:1/4=110
K:F
C | F2 E-D | C2 F2 | G2 G A | F2 E-D | C2 F2 |!
G2 z F | G A F G | B-A G F | F2 E-D | C2 D-E | F4 ||
W:C'est Guilhem de Beauvoire qui se va marier ;
W:Prend femme tant jeunette, ne sais pas s'habiller.

